X: 36786
T: Sheriff's Ride, The
R: reel
M: 4/4
K: Eminor
|:BA|G2 E2 E2 FG|AG F2 E2 B2|e2 e2 e2 fe|d2 B2 B3 B|
d2 d2 ed dc|dcBA A2 E2|G2 A2 dcBA|1 B2 E2 E2:|2 B2 E2 E4||
|:e2 e2 e2 fe|d2 B2 B3 B|e2 e2 e2 fe|d2 B2 B3 B|
d2 d2 ed dc|dcBA A2 E2|G2 A2 dcBA|1 BE E2 E4:|2 BE E2 E2||

